src/uni-drop/src/assets/github.svg

<svg xmlns="http://www.w3.org/2000/svg" xmlns:xlink="http://www.w3.org/1999/xlink" width="16" height="16" fill="none"><defs><path id="github_svg__a" d="M0 0h16v16H0z"></path></defs><g><mask id="github_svg__b" fill="#fff"><use xlink:href="#github_svg__a"></use></mask><g mask="url(#github_svg__b)"><path d="M7.11 8.51c.81-.16 1.53-.45 2.1-.87.96-.73 1.46-1.85 1.46-2.95 0-.78-.3-1.5-.81-2.11-.28-.34.55-2.89-.19-2.55-.73.34-1.81 1.1-2.38.94C6.68.79 6.02.69 5.33.69c-.6 0-1.17.07-1.71.21-.79.2-1.53-.54-2.29-.87C.58-.29.99 2.34.77 2.62.28 3.22 0 3.93 0 4.69c0 1.1.6 2.22 1.56 2.95.65.48 1.45.78 2.35.94" transform="translate(2.667 1.645)" style="stroke: rgb(51, 51, 51); stroke-width: 1.33333; stroke-opacity: 1; stroke-dasharray: 0, 0;"></path><path d="M.58 0C.19.43 0 .83 0 1.21v2.91" transform="translate(6 10.22)" style="stroke: rgb(51, 51, 51); stroke-width: 1.33333; stroke-opacity: 1; stroke-dasharray: 0, 0;"></path><path d="M0 0c.37.48.55.91.55 1.29v2.89" transform="translate(9.782 10.159)" style="stroke: rgb(51, 51, 51); stroke-width: 1.33333; stroke-opacity: 1; stroke-dasharray: 0, 0;"></path><path d="M0 0c.3.04.52.17.67.41C.88.77 1.69 2.1 2.61 2.1H4" transform="translate(2 10.405)" style="stroke: rgb(51, 51, 51); stroke-width: 1.33333; stroke-opacity: 1; stroke-dasharray: 0, 0;"></path></g></g></svg>

<svg xmlns="http://www.w3.org/2000/svg" xmlns:xlink="http://www.w3.org/1999/xlink" width="16" height="16" viewBox="0 0 16 16"><defs><rect id="path_0" width="16" height="16" x="0" y="0"/></defs><g opacity="1" transform="translate(0 0) rotate(0 8 8)"><mask id="bg-mask-0"><use xlink:href="#path_0"/></mask><g mask="url(#bg-mask-0)"><path id="路径 1" style="stroke:#333;stroke-width:1.3333333333333333;stroke-opacity:1;stroke-dasharray:0 0" d="M7.11,8.51C7.92,8.35 8.64,8.06 9.21,7.64C10.17,6.91 10.67,5.79 10.67,4.69C10.67,3.91 10.37,3.19 9.86,2.58C9.58,2.24 10.41,-0.31 9.67,0.03C8.94,0.37 7.86,1.13 7.29,0.97C6.68,0.79 6.02,0.69 5.33,0.69C4.73,0.69 4.16,0.76 3.62,0.9C2.83,1.1 2.09,0.36 1.33,0.03C0.58,-0.29 0.99,2.34 0.77,2.62C0.28,3.22 0,3.93 0,4.69C0,5.79 0.6,6.91 1.56,7.64C2.21,8.12 3.01,8.42 3.91,8.58" transform="translate(2.6666666666666665 1.644694921083138) rotate(0 5.333333333333333 4.287969206125098)"/><path id="路径 2" style="stroke:#333;stroke-width:1.3333333333333333;stroke-opacity:1;stroke-dasharray:0 0" d="M0.58,0C0.19,0.43 0,0.83 0,1.21C0,1.59 0,2.56 0,4.12" transform="translate(6.000666666666666 10.220633333333332) rotate(0 0.2896166666666667 2.058116666666666)"/><path id="路径 3" style="stroke:#333;stroke-width:1.3333333333333333;stroke-opacity:1;stroke-dasharray:0 0" d="M0,0C0.37,0.48 0.55,0.91 0.55,1.29C0.55,1.68 0.55,2.64 0.55,4.18" transform="translate(9.781533333333332 10.158866666666666) rotate(0 0.2744333333333332 2.0890166666666663)"/><path id="路径 4" style="stroke:#333;stroke-width:1.3333333333333333;stroke-opacity:1;stroke-dasharray:0 0" d="M0,0C0.3,0.04 0.52,0.17 0.67,0.41C0.88,0.77 1.69,2.1 2.61,2.1C3.22,2.1 3.68,2.1 4,2.1" transform="translate(2 10.405166666666666) rotate(0 2.0004 1.050416666666667)"/></g></g></svg>
